!!!COA:	Josquin des Prez
!!!CDT:	~1450-1521/08/27
!!!OTL@@LAT:	Beati omnes
!!!ONB: long name: Beati omnes, qui timent dominum
!!!OTL2@@LAT:	Filii tui
!!!AGN:	Motet
!!!SCT:	NJE 15.2
!!!SCA:	New Josquin Edition 15.2
!!!voices:	4
**kern	**kern	**kern	**kern
*staff4	*staff3	*staff2	*staff1
*clefF4	*clefGv2	*clefGv2	*clefG2
*Ivox	*Ivox	*Ivox	*Ivox
*I"Bassus	*I"Tenor	*I"Altus	*I"Superius
*I'B	*I'T	*I'A	*I'S
*>[A,B]	*>[A,B]	*>[A,B]	*>[A,B]
*>Part1[A]	*>Part1[A]	*>Part1[A]	*>Part1[A]
*>Part2[B]	*>Part2[B]	*>Part2[B]	*>Part2[B]
*k[]	*k[]	*k[]	*k[]
*M2/1	*M2/1	*M2/1	*M2/1
*met(C|)	*met(C|)	*met(C|)	*met(C|)
*>A	*>A	*>A	*>A
!!section:Part 1
=1-	=1-	=1-	=1-
1r	0d	1r	0a
1D	.	1d	.
=2	=2	=2	=2
1D	0d	1f	1a
1D	.	1f	1a
=3	=3	=3	=3
0G	1d	0g	0b
.	[1d	.	.
=4	=4	=4	=4
1D	1d]	1f	1a
1D	[1d	1f	1a
=5	=5	=5	=5
0G	1d]	0g	1b
.	1d	.	[1dd
=6	=6	=6	=6
1.F	0f	0a	2dd\]
.	.	.	2cc\
.	.	.	[1cc
2G\	.	.	.
=7	=7	=7	=7
2A\	0e	1a	1cc]
2B\	.	.	.
2c\	.	[1g	1cc
2C/	.	.	.
=8	=8	=8	=8
1G	1d	2g\]	1b
.	.	2G/	.
1F	1d	1A	1a
=9	=9	=9	=9
1E	[0e	2B\	2.g/
.	.	2G/	.
.	.	.	4a/
2r	.	1g	2b\
[2C/	.	.	[2cc\
=10	=10	=10	=10
4C/]	0e_	2r	2cc\]
4D\	.	.	.
4E\	.	2.g\	1b
4F\	.	.	.
2G\	.	.	.
.	.	4f\	.
[2A\	.	4e\	4a/
.	.	4d\	4b\
=11	=11	=11	=11
4A\]	0e_	2c\	4cc\
4B\	.	.	4dd\
2.c\	.	2.A/	2.ee\
4B\	.	4B\	4dd\
2A\	.	4c\	2cc\
.	.	4d\	.
=12	=12	=12	=12
2G\	0e]	2e\	2b\
2A\	.	2c\	1a
1E	.	1B	.
.	.	.	2g#i/
=13	=13	=13	=13
1A	1r	2A/	0a
.	.	2e\	.
2r	1d	1f	.
2D\	.	.	.
=14	=14	=14	=14
2G\	1.d	2g\	1r
2G\	.	2g\	.
1D	.	2.f\	2r
.	2d\	.	2a/
.	.	4g\	.
=15	=15	=15	=15
1r	1d	1a	2dd\
.	.	.	2dd\
2r	1d	2r	2a/
2G\	.	2g\	2b\
=16	=16	=16	=16
2c\	1e	2g\	1cc
2c\	.	2g\	.
1G	1d	1g	1b
=17	=17	=17	=17
2r	0c	2r	2a/
2C/	.	2e\	2g/
2C/	.	1e	2r
2C/	.	.	2g/
=18	=18	=18	=18
2.E\	0B	2e\	2g/
.	.	1g	2g/
4F\	.	.	.
1G	.	.	2.b\
.	.	2d\	.
.	.	.	4cc\
=19	=19	=19	=19
1D	0A	1f	4dd\
.	.	.	4a/
.	.	.	1dd
1r	.	1e	.
.	.	.	2cc#i\
=20	=20	=20	=20
1r	1B	1d	0dd
2r	1G	2r	.
2G\	.	2g\	.
=21	=21	=21	=21
2G\	0d	2g\	2r
2G\	.	2g\	2dd\
2B-\	.	2f\	2dd\
2B-\	.	2g\	2dd\
=22	=22	=22	=22
1A	1r	1a	1.cc
2F\	2r	2A/	.
[2G\	2d\	[2B\	2b\
=23	=23	=23	=23
2G\]	2d\	2B\]	2dd\
4F\	2d\	4A/	2dd\
4E\	.	4G/	.
1D	2f\	2A/	1dd
.	2f\	2B\	.
=24	=24	=24	=24
1C	1e	2.c\	1g
.	.	4d\	.
1r	2c\	2e\	2r
.	[2d\	[2f\	2a/
=25	=25	=25	=25
0r	2d\]	2f\]	2a/
.	4c\	4e\	2a/
.	4B\	4d\	.
.	1A	2e\	2cc\
.	.	2f\	2cc\
=26	=26	=26	=26
2r	1G	2.g\	1b
1G	.	.	.
.	.	4f\	.
.	1r	4e\	2g/
.	.	4d\	.
2D\	.	[2f\	[2a/
=27	=27	=27	=27
2F\	0r	2f\]	2a/]
2G\	.	4e\	4g/
.	.	4d\	4f/
1A	.	1c#i	1e
=28	=28	=28	=28
1D	2r	2.d\	2d/
.	1d	.	1dd
.	.	4e\	.
1r	.	2f\	.
.	2A/	[2e\	[2ee\
=29	=29	=29	=29
0r	2c\	2e\]	2ee\]
.	2d\	1a	4dd\
.	.	.	4cc\
.	1e	.	1b
.	.	2g#i\	.
=30	=30	=30	=30
2r	2A/	1a	2a/
1D	1d	.	4f/
.	.	.	4g/
.	.	2r	4a/
.	.	.	4b\
2AA/	[2e\	2a\	[2cc\
=31	=31	=31	=31
2C/	2e\]	2g\	2cc\]
2D\	4d\	2f\	4b\
.	4c\	.	4a/
1E	1B	[1e	1g#i
=32	=32	=32	=32
2.AA/	1A	2e\]	1a
.	.	2c\	.
4BB/	.	.	.
2.C/	2r	1c	2.e/
.	[2G/	.	.
4D\	.	.	4f/
=33	=33	=33	=33
2.E\	4G/]	2r	2.g/
.	4A/	.	.
.	2.B\	1g	.
4F\	.	.	4a/
1G	.	.	2b\
.	4c\	.	.
.	4d\	2d\	2b\
.	4B\	.	.
=34	=34	=34	=34
2A\	2c\	2f\	2a/
2B\	2d\	2g\	2g/
1A	2e\	1a	1cc
.	2f\	.	.
=35	=35	=35	=35
0G	2.g\	1d	0b
.	4f\	.	.
.	4e\	2r	.
.	4d\	.	.
.	2e\	2g\	.
=36	=36	=36	=36
0D	4f\	1a	1r
.	4e\	.	.
.	4d\	.	.
.	4c\	.	.
.	1d	1f	1dd
=37	=37	=37	=37
1A	1.c	0e	1ee
1A	.	.	1cc
.	4B\	.	.
.	4A/	.	.
=38	=38	=38	=38
1E	1e	2r	1b
.	.	2.g\	.
2r	1B	.	2r
.	.	4f\	.
2G\	.	4e\	2b\
.	.	4d\	.
=39	=39	=39	=39
1A	1r	1c	2a/
.	.	.	2a/
1F	1d	1f	4a/
.	.	.	4g/
.	.	.	4a/
.	.	.	4b\
=40	=40	=40	=40
0E	1e	1g	2cc\
.	.	.	2b\
.	1c	2r	1ee
.	.	[2g\	.
=41	=41	=41	=41
0G	1B	2g\]	[0dd
.	.	4f\	.
.	.	4e\	.
.	2r	2.d\	.
.	2B\	.	.
.	.	4e\	.
=42	=42	=42	=42
1D	2A/	4f\	1dd]
.	.	4e\	.
.	2A/	4f\	.
.	.	4g\	.
2r	4A/	1a	1cc
.	4G/	.	.
2F\	4A/	.	.
.	4B\	.	.
=43	=43	=43	=43
2E\	2c\	2r	0r
2E\	2B\	2.g\	.
4E\	1e	.	.
4D\	.	4f\	.
4E\	.	4g\	.
4F\	.	4a\	.
=44	=44	=44	=44
2G\	0d	2b-i\	2r
2F\	.	1a	2a/
1B-i	.	.	1dd
.	.	2g\	.
=45	=45	=45	=45
1A	0e	3%2aV	2.cc\
.	.	3A/Z	.
.	.	.	4dd\
2r	.	3.c\V	1ee
2E\	.	6B\	.
.	.	3G/Z	.
=46	=46	=46	=46
2D\	2r	0d	0a
2D\	2.f\	.	.
4D\	.	.	.
4C/	4e\	.	.
4D\	4f\	.	.
4E\	4g\	.	.
=47	=47	=47	=47
2F\	2a\	0c	1r
2E\	1g	.	.
1A	.	.	1cc
.	2f#i\	.	.
=48	=48	=48	=48
[0G	[0g	2r	1.b
.	.	2e\	.
.	.	2d\	.
.	.	2d\	2b\
=49	=49	=49	=49
1G]	1g]	4d\	1dd
.	.	4c\	.
.	.	4d\	.
.	.	4e\	.
1A	1c	2f\	2cc\
.	.	2e\	2ee\
=50	=50	=50	=50
1F	2.f\	1a	2dd\
.	.	.	1cc
.	4e\	.	.
1G	1d	[1g	.
.	.	.	2b\
=51	=51	=51	=51
0C	0c	1g]	0cc
.	.	2r	.
.	.	[2g\	.
=52	=52	=52	=52
0r	0r	2g\]	2r
.	.	2f\	1dd
.	.	1e	.
.	.	.	2cc\
=53	=53	=53	=53
2r	1r	0d	1b
1G	.	.	.
.	2r	.	[1a
2F\	[2d\	.	.
=54	=54	=54	=54
1E	2d\]	0r	1a]
.	2c\	.	.
1D	1B	.	2r
.	.	.	[2dd\
=55	=55	=55	=55
0r	1A	2r	2dd\]
.	.	1a	2cc\
.	1r	.	1b
.	.	2g\	.
=56	=56	=56	=56
2r	1r	1f	2a/
1d	.	.	2a/
.	2r	2e\	2b\
2c\	[2a\	2e\	2cc\
=57	=57	=57	=57
1B	2a\]	2f\	1dd
.	2g\	2g\	.
1A	2f\	1a	2r
.	[2e\	.	[2cc\
=58	=58	=58	=58
1r	2e\]	2A/	2cc\]
.	2d\	2B\	4b\
.	.	.	4a/
2r	2e\	1c	2g/
2A\	2f\	.	2cc\
=59	=59	=59	=59
2B\	2g\	2d\	2b\
2c\	2a\	2A/	1ee
1d	1f	[1a	.
.	.	.	2dd\
=60	=60	=60	=60
1A	0e	2a\]	1ee
.	.	1cc	.
[1c	.	.	2r
.	.	2cc\	[2ee\
=61	=61	=61	=61
2c\]	1.g	2cc\	2ee\]
2c\	.	2cc\	2ee\
2c\	.	2g\	2ee\
2c\	2g\	[2cc\	2ee\
=62	=62	=62	=62
1G	2g\	2cc\]	1dd
.	2g\	2b\	.
[1A	2e\	1a	1cc
.	[2f\	.	.
=63	=63	=63	=63
2A\]	2f\]	2f\	2a/
2G\	2e\	2g\	2b\
1F	2e\	2a\	2cc\
.	2d\	2A/	2dd\
=64	=64	=64	=64
1E	1e	2B\	1g
.	.	1c	.
[1F	1r	.	[1a
.	.	[2f\	.
=65	=65	=65	=65
2F\]	1.c	2f\]	2a/]
2F\	.	2f\	2a/
2F\	.	2f\	2a/
2F\	2c\	2f\	2a/
=66	=66	=66	=66
1C	2c\	2e\	1g
.	2c\	2e\	.
[1D	2F/	2d\	1f
.	[2f\	4d\	.
.	.	4e\	.
=67	=67	=67	=67
2D\]	2f\]	4f\	1a
.	.	4g\	.
2C/	2e\	1a	.
1BB	2e\	.	1dd
.	2d\	2g#i\	.
=68	=68	=68	=68
0AAl;	0el;	0al;	0ccl;
!!LO:LB:g=z
=69||	=69||	=69||	=69||
*>B	*>B	*>B	*>B
*k[]	*k[]	*k[]	*k[]
*M2/1	*M2/1	*M2/1	*M2/1
*met(C|)	*met(C|)	*met(C|)	*met(C|)
!!section:Part 2
!!!OMD: Secunda pars: Filii tui
1.A	1r	0r	0r
.	[1e	.	.
2A\	.	.	.
=70	=70	=70	=70
1E	2e\]	0r	0r
.	2e\	.	.
1G	1B	.	.
=71	=71	=71	=71
2.F\	1d	1.a	1r
4G\	.	.	.
4A\	1c	.	[1ee
4G\	.	.	.
4A\	.	2a\	.
4B\	.	.	.
=72	=72	=72	=72
2.c\	0r	1e	2ee\]
.	.	.	2ee\
8B\L	.	.	.
8A\J	.	.	.
1G	.	1g	1b
=73	=73	=73	=73
1D	0r	0f	1dd
2r	.	.	[1cc
2F\	.	.	.
=74	=74	=74	=74
2F\	2r	0r	1cc]
2C/	2c\	.	.
1E	2c\	.	1r
.	2G/	.	.
=75	=75	=75	=75
1D	1B	2r	1r
.	.	2f\	.
1F	1A	2f\	2r
.	.	2c\	2cc\
=76	=76	=76	=76
1C	1c	1e	2cc\
.	.	.	2g/
1G	1G	1d	1b
=77	=77	=77	=77
2.D\	1d	2r	1a
.	.	1f	.
4E\	.	.	.
4F\	1A	.	2r
4G\	.	.	.
2A\	.	[2c\	2cc\
=78	=78	=78	=78
2.F\	2c\	2c\]	2a/
.	2A/	1f	2.cc\
4G\	.	.	.
4A\	2.c\	.	.
4B\	.	.	4dd\
[2c\	.	[2e\	4ee\
.	4d\	.	4ff\
=79	=79	=79	=79
2c\]	1e	4e\]	1gg
.	.	4f\	.
2C/	.	2g\	.
2AA/	2.c\	2a\	2ff\
[2C/	.	[2g\	[2ee\
.	4d\	.	.
=80	=80	=80	=80
4C/]	4e\	4g\]	4ee\]
4D\	4f\	4f\	4dd\
4E\	2.g\	2e\	2cc\
4F\	.	.	.
2G\	.	2d\	2b\
.	4f\	.	.
2A\	2e\	2c\	2a/
=81	=81	=81	=81
2B\	2d\	2r	2dd\
1c	2c\	2g\	2.ee\
.	2A/	2a\	.
.	.	.	4cc\
2F\	2a\	2cc\	2ff\
=82	=82	=82	=82
1G	2.g\	1b	2ee\
.	.	.	1dd
.	4f\	.	.
1A	1e	2.a\	.
.	.	.	2cc#i\
.	.	4cc\	.
=83	=83	=83	=83
0D	0d	1b	1dd
.	.	1a	1r
=84	=84	=84	=84
0r	0r	1r	1.ee
.	.	[1a	.
.	.	.	2dd\
=85	=85	=85	=85
0r	1r	2a\]	2cc\
.	.	2g\	2b\
.	[1a	2f\	[1a
.	.	2e\	.
=86	=86	=86	=86
1.d	2a\]	1d	1a]
.	2g\	.	.
.	2f\	1a	[1dd
2c\	2e\	.	.
=87	=87	=87	=87
2B\	1d	1g	2dd\]
2A\	.	.	2cc\
1G	[1e	1g	1b
=88	=88	=88	=88
1.A	2e\]	1c	1a
.	2d\	.	.
.	2c\	1e	[1cc
2G\	2B\	.	.
=89	=89	=89	=89
2F\	2A/	2f\	1cc]
2E\	1c	2c\	.
1D	.	1f	1dd
.	2B\	.	.
=90	=90	=90	=90
0C	0c	[0e	1g
.	.	.	2r
.	.	.	[2g/
=91	=91	=91	=91
1r	1r	0e]	2g/]
.	.	.	2g/
1C	1c	.	1g
=92	=92	=92	=92
1F	4A/	1r	1a
.	4B\	.	.
.	4c\	.	.
.	4d\	.	.
2E\	2e\	1c	2g/
2F\	2A/	.	2a/
=93	=93	=93	=93
2E\	2e\	1c	2g/
1F	2.A/	.	2.cc\
.	.	1c	.
.	4B\	.	4dd\
2E\	2c\	.	2ee\
=94	=94	=94	=94
4D\	2F/	1d	[0a
4E\	.	.	.
4F\	2f\	.	.
4G\	.	.	.
2A\	2e\	2c\	.
2D\	2f\	2d\	.
=95	=95	=95	=95
2A\	2e\	2c\	0a]
2.D\	2d\	2.f\	.
.	1A	.	.
4E\	.	4g\	.
2F\	.	2a\	.
=96	=96	=96	=96
0G	1r	[0d	2.b\
.	.	.	4a/
.	1G	.	4b\
.	.	.	4cc\
.	.	.	2dd\
=97	=97	=97	=97
0r	1G	0d]	2g/
.	.	.	2.b\
.	1G	.	.
.	.	.	4a/
.	.	.	4g/
.	.	.	4f/
=98	=98	=98	=98
1r	1A	0c	0e
1C	2G/	.	.
.	2A/	.	.
=99	=99	=99	=99
1C	2G/	0e	1.g
.	2.c\	.	.
1C	.	.	.
.	4d\	.	.
.	2e\	.	2g/
=100	=100	=100	=100
1D	[0A	1d	4f/
.	.	.	4g/
.	.	.	4a/
.	.	.	4b\
2C/	.	2r	2cc\
2D\	.	2d\	2f/
=101	=101	=101	=101
2C/	0A]	2e\	2cc\
2.F\	.	1f	2.a/
4G\	.	.	4b\
2A\	.	2e\	2cc\
=102	=102	=102	=102
1D	2r	1f	0a
.	1d	.	.
1A	.	2e\	.
.	2c\	[2a\	.
=103	=103	=103	=103
2F\	1d	2a\]	0r
2G\	.	2g\	.
4D\	1f	1a	.
4E\	.	.	.
4F\	.	.	.
4G\	.	.	.
=104	=104	=104	=104
4A\	2f\	1cc	0r
4B\	.	.	.
2.c\	2.e\	.	.
.	.	2cc\	.
4B\	4d\	.	.
[2G\	[2d\	[2b\	.
=105	=105	=105	=105
2G\]	2d\]	4b\]	1r
.	.	4a\	.
2A\	2c\	1a	.
2B\	1d	.	2r
2B\	.	2g#i\	[2dd\
=106	=106	=106	=106
1A	1r	1a	2dd\]
.	.	.	2cc\
2r	1g	1b	1dd
2G\	.	.	.
=107	=107	=107	=107
2.F\	1a	2cc\	1ff
.	.	2c\	.
4E\	.	.	.
2D\	2f\	2d\	2ff\
2C/	2g\	2e\	[2ee\
=108	=108	=108	=108
1D	1d	1f	4ee\]
.	.	.	4dd\
.	.	.	1dd
1r	1e	1g	.
.	.	.	2cc\
=109	=109	=109	=109
1.G	0d	2r	1dd
.	.	1g	.
.	.	.	2r
2G\	.	4f\	[2dd\
.	.	4e\	.
=110	=110	=110	=110
1G	0r	2.d\	2dd\]
.	.	.	4cc\
.	.	4e\	4b\
1F	.	4f\	2a/
.	.	4g\	.
.	.	2a\	2cc\
=111	=111	=111	=111
1B-i	1.d	2f\	[0dd
.	.	1g	.
2G\	.	.	.
[2B-i\	2d\	2f\	.
=112	=112	=112	=112
4B-\]	1d	1g	1dd]
4A\	.	.	.
4G\	.	.	.
4F\	.	.	.
2E\	1c	1r	1gg
2E\	.	.	.
=113	=113	=113	=113
0D	1f	1.a	0ff
.	2d\	.	.
.	[2f\	2a\	.
=114	=114	=114	=114
1F	4f\]	1a	0r
.	4e\	.	.
.	4d\	.	.
.	4c\	.	.
1G	2B\	1g	.
.	2B\	.	.
=115	=115	=115	=115
1A	0A	1cc	1.ee
1r	.	2a\	.
.	.	[2cc\	2ee\
=116	=116	=116	=116
0r	1c	4cc\]	1ee
.	.	4b\	.
.	.	4a\	.
.	.	4g\	.
.	1d	2f\	1dd
.	.	2f\	.
=117	=117	=117	=117
0c	1c	2e\	1gg
.	.	2g\	.
.	1r	2a\	2ee\
.	.	4g\	[2gg\
.	.	4f\	.
=118	=118	=118	=118
1c	0r	4e\	4gg\]
.	.	4d\	4ff\
.	.	1g	4ee\
.	.	.	4dd\
1A	.	.	2cc\
.	.	2f#i\	2cc\
=119	=119	=119	=119
1G	0g	2g\	2b\
.	.	2g\	2b\
2r	.	2b\	1dd
2G\	.	2b\	.
=120	=120	=120	=120
2E\	1g	1b	1ee
2E\	.	.	.
2A\	1e	2cc\	2r
2A\	.	[2a\	2cc\
=121	=121	=121	=121
1D	1d	2a\]	2dd\
.	.	2f\	2dd\
2r	2r	2f\	2a/
2D\	2d\	2f\	2a/
=122	=122	=122	=122
2E\	2B\	1e	2g/
2E\	2B\	.	2g/
2C/	2e\	1r	2g/
2C/	2e\	.	2g/
=123	=123	=123	=123
1D	1A	2r	1f
.	.	2a\	.
2r	2r	2f\	2r
2F\	2A/	2d\	2a/
=124	=124	=124	=124
2E\	2B\	2e\	2g/
2D\	2B\	2f\	2dd\
2E\	2G/	2g\	2b\
2E\	2G/	2g\	2b\
=125	=125	=125	=125
0AA	0A	[0e	1.cc
.	.	.	4b\
.	.	.	4a/
=126	=126	=126	=126
1.E	1r	0e]	[0g
.	[1B	.	.
2E\	.	.	.
=127	=127	=127	=127
2E\	2B\]	0r	1g]
2E\	2B\	.	.
1D	2B\	.	1r
.	2B\	.	.
=128	=128	=128	=128
1C	1A	1.e	1r
1r	1G	.	[1b
.	.	2e\	.
=129	=129	=129	=129
0r	0r	2e\	2b\]
.	.	2e\	2b\
.	.	1d	2b\
.	.	.	2b\
=130	=130	=130	=130
1F	2r	1c	1a
.	2A/	.	.
2E\	2e\	1r	2g/
[2A\	2c\	.	[2cc\
=131	=131	=131	=131
2A\]	1f	2r	2cc\]
2F\	.	1f	2a/
1B-	2d\	.	2.dd\
.	[2g\	2d\	.
.	.	.	4cc\
=132	=132	=132	=132
2G\	4g\]	2.g\	4b\
.	4f\	.	4a/
1c	4e\	.	2.cc\
.	4d\	4f\	.
.	2g\	4e\	.
.	.	4d\	4b\
2d\	2f\	[2f\	[2a/
=133	=133	=133	=133
1B	1d	4f\]	2a/]
.	.	4e\	.
.	.	1d	2g/
1A	1e	.	[1a
.	.	2c#i\	.
=134	=134	=134	=134
1D	4f\	2d\	1a]
.	4e\	.	.
.	4d\	2d\	.
.	4c\	.	.
2r	1B	2d\	1r
2D\	.	2d\	.
=135	=135	=135	=135
2D\	1A	1d	2r
2D\	.	.	2a/
1D	2r	[1f	2a/
.	2A/	.	2a/
=136	=136	=136	=136
1.F	2A/	2f\]	1a
.	2A/	2f\	.
.	1A	1f	[1cc
2F\	.	.	.
=137	=137	=137	=137
1F	1.c	1.a	2cc\]
.	.	.	2cc\
[1A	.	.	1cc
.	2c\	2a\	.
=138	=138	=138	=138
2A\]	1c	1cc	1.ee
2A\	.	.	.
1c	1e	1g	.
.	.	.	2ee\
=139	=139	=139	=139
1G	2e\	2.g\	1gg
.	2.g\	.	.
.	.	4a\	.
2G\	.	2b\	2dd\
.	4f\	.	.
[2A\	4e\	2cc\	2cc\
.	4d\	.	.
=140	=140	=140	=140
2A\]	2c\	1a	2ee\
2F\	2d\	.	2ff\
1E	2d\	2.g\	1gg
.	2c#i\	.	.
.	.	4a\	.
=141	=141	=141	=141
1D	1d	1b-	1.ff
[1d	[1f	1a	.
.	.	.	2dd\
=142	=142	=142	=142
1d]	1f]	2r	1dd
.	.	1a	.
1d	1f	.	2r
.	.	2a\	[2dd\
=143	=143	=143	=143
1d	1f	2a\	2dd\]
.	.	2b\	2dd\
1c	1g	2cc\	1ee
.	.	2cc\	.
=144	=144	=144	=144
1d	1f	[0a	2dd\
.	.	.	1ff
1d	2d\	.	.
.	[2f\	.	4ee\
.	.	.	4dd\
=145	=145	=145	=145
0A	2f\]	1a]	2cc\
.	4e\	.	1dd
.	4d\	.	.
.	2e\	2r	.
.	2e\	2A/	2cc#i\
=146	=146	=146	=146
0r	2d\	2B\	[0ddl
.	1g	2.G/	.
.	.	4A/	.
.	2g\	[2B\	.
=147	=147	=147	=147
0r	1g	2B\]	0dd_
.	.	4A/	.
.	.	4G/	.
.	1f	1d	.
=148	=148	=148	=148
2r	1g	4G/	0dd_
.	.	4A/	.
1G	.	4B\	.
.	.	4c\	.
.	1g	2d\	.
2G\	.	4G/	.
.	.	4A/	.
=149	=149	=149	=149
1G	[0dl	4B\	0dd_
.	.	4c\	.
.	.	4d\	.
.	.	4e\	.
1F	.	4f\	.
.	.	4e\	.
.	.	4d\	.
.	.	4c\	.
=150	=150	=150	=150
1G	0d_	2B\	0dd_
.	.	2G/	.
1G	.	1g	.
=151	=151	=151	=151
0Dl	0d]	0fl	0dd]
==	==	==	==
*-	*-	*-	*-
!!!RDF**kern: %=rational rhythm
!!!rscale-alt: 1/2
!!!RDF**kern: l=long note in original notation
!!!RDF**kern: i=editorial accidental
!!!RDF**kern: V=start of tuplet marker
!!!RDF**kern: Z=end of tuplet marker
!!!ENC:	Victoria Chang
!!!END:	2011/03/21/ [sic]
!!!SMS:	Grimm & Wyrsung 1520 
!!!SMS1: after GW: Ed. Kroyer, Ludwig Senfls Werke, Denkmler der Tonkunst in 
!!!SMS2:Bayern, Jg. III/2 (Leipzig 1903), pp 118-124; 
!!!SMS1: after GW: Ed. Gerstenberg. Ludwig Senfl, Smtliche Werke, Motetten, 
!!!SMS2: vol. 3 (Basel 1939), pp 43-47
!!!EED:	Jesse Rodin
!!!EEV:	2011/04/05/
!!attribution-level@Jos: 4 (questionable)
!!!ONB:	Translated from MusicXML and edited on 2011/04/05/ by Craig Sapp
!!muse2ps: u^(2) @{OTL2}^C^@{COA}?\n@{SCT}^i2I150v90,90,90,150Q16
